assets/img/braze_icons/cryptocurrency-03.svg

<svg fill="none" height="24" viewBox="0 0 24 24" width="24" xmlns="http://www.w3.org/2000/svg"><g fill="#801ed7"><path d="m1.29289 1.29289c.39053-.390521 1.02369-.390521 1.41422 0l2 2c.39052.39053.39052 1.02369 0 1.41422-.39053.39052-1.02369.39052-1.41422 0l-2-2c-.390521-.39053-.390521-1.02369 0-1.41422z"/><path d="m8 1c.55228 0 1 .44772 1 1v1.5c0 .55228-.44772 1-1 1s-1-.44772-1-1v-1.5c0-.55228.44772-1 1-1z"/><path d="m21.2929 1.29289c.3905-.390521 1.0237-.390521 1.4142 0 .3905.39053.3905 1.02369 0 1.41422l-2 2c-.3905.39052-1.0237.39052-1.4142 0-.3905-.39053-.3905-1.02369 0-1.41422z"/><path d="m19.5 8c0-.55228.4477-1 1-1h1.5c.5523 0 1 .44772 1 1s-.4477 1-1 1h-1.5c-.5523 0-1-.44772-1-1z"/><path d="m3.5 17h-1.5c-.55228 0-1-.4477-1-1s.44772-1 1-1h1.5c.55228 0 1 .4477 1 1s-.44772 1-1 1z"/><path d="m4.70711 19.2929c.39052.3905.39052 1.0237 0 1.4142l-2 2c-.39053.3905-1.02369.3905-1.41422 0-.390521-.3905-.390521-1.0237 0-1.4142l2-2c.39053-.3905 1.02369-.3905 1.41422 0z"/><path d="m19.2929 19.2929c.3905-.3905 1.0237-.3905 1.4142 0l2 2c.3905.3905.3905 1.0237 0 1.4142s-1.0237.3905-1.4142 0l-2-2c-.3905-.3905-.3905-1.0237 0-1.4142z"/><path d="m16 19.5c.5523 0 1 .4477 1 1v1.5c0 .5523-.4477 1-1 1s-1-.4477-1-1v-1.5c0-.5523.4477-1 1-1z"/><path d="m17 16c0-.5523.4477-1 1-1h3.5c.5523 0 1 .4477 1 1s-.4477 1-1 1h-3.5c-.5523 0-1-.4477-1-1z"/><path d="m17 6v-4c0-.55228-.4477-1-1-1s-1 .44772-1 1v4c0 .55228.4477 1 1 1s1-.44772 1-1z"/><path d="m1 8c0-.55228.44772-1 1-1h4c.55228 0 1 .44772 1 1s-.44772 1-1 1h-4c-.55228 0-1-.44772-1-1z"/><path d="m9 18c0-.5523-.44772-1-1-1s-1 .4477-1 1v4c0 .5523.44772 1 1 1s1-.4477 1-1z"/><path d="m12 7c-2.76142 0-5 2.23858-5 5 0 2.7614 2.23858 5 5 5 2.7614 0 5-2.2386 5-5 0-2.76142-2.2386-5-5-5z"/></g></svg>

<svg width="24" height="24" viewBox="0 0 24 24" fill="none" xmlns="http://www.w3.org/2000/svg">
<path d="M1.29289 1.29289C1.68342 0.902369 2.31658 0.902369 2.70711 1.29289L4.70711 3.29289C5.09763 3.68342 5.09763 4.31658 4.70711 4.70711C4.31658 5.09763 3.68342 5.09763 3.29289 4.70711L1.29289 2.70711C0.902369 2.31658 0.902369 1.68342 1.29289 1.29289Z" fill="#801ED7"/>
<path d="M8 1C8.55228 1 9 1.44772 9 2V3.5C9 4.05228 8.55228 4.5 8 4.5C7.44772 4.5 7 4.05228 7 3.5V2C7 1.44772 7.44772 1 8 1Z" fill="#801ED7"/>
<path d="M21.2929 1.29289C21.6834 0.902369 22.3166 0.902369 22.7071 1.29289C23.0976 1.68342 23.0976 2.31658 22.7071 2.70711L20.7071 4.70711C20.3166 5.09763 19.6834 5.09763 19.2929 4.70711C18.9024 4.31658 18.9024 3.68342 19.2929 3.29289L21.2929 1.29289Z" fill="#801ED7"/>
<path d="M19.5 8C19.5 7.44772 19.9477 7 20.5 7H22C22.5523 7 23 7.44772 23 8C23 8.55228 22.5523 9 22 9H20.5C19.9477 9 19.5 8.55228 19.5 8Z" fill="#801ED7"/>
<path d="M3.5 17H2C1.44772 17 1 16.5523 1 16C1 15.4477 1.44772 15 2 15H3.5C4.05228 15 4.5 15.4477 4.5 16C4.5 16.5523 4.05228 17 3.5 17Z" fill="#801ED7"/>
<path d="M4.70711 19.2929C5.09763 19.6834 5.09763 20.3166 4.70711 20.7071L2.70711 22.7071C2.31658 23.0976 1.68342 23.0976 1.29289 22.7071C0.902369 22.3166 0.902369 21.6834 1.29289 21.2929L3.29289 19.2929C3.68342 18.9024 4.31658 18.9024 4.70711 19.2929Z" fill="#801ED7"/>
<path d="M19.2929 19.2929C19.6834 18.9024 20.3166 18.9024 20.7071 19.2929L22.7071 21.2929C23.0976 21.6834 23.0976 22.3166 22.7071 22.7071C22.3166 23.0976 21.6834 23.0976 21.2929 22.7071L19.2929 20.7071C18.9024 20.3166 18.9024 19.6834 19.2929 19.2929Z" fill="#801ED7"/>
<path d="M16 19.5C16.5523 19.5 17 19.9477 17 20.5V22C17 22.5523 16.5523 23 16 23C15.4477 23 15 22.5523 15 22V20.5C15 19.9477 15.4477 19.5 16 19.5Z" fill="#801ED7"/>
<path d="M17 16C17 15.4477 17.4477 15 18 15H21.5C22.0523 15 22.5 15.4477 22.5 16C22.5 16.5523 22.0523 17 21.5 17H18C17.4477 17 17 16.5523 17 16Z" fill="#801ED7"/>
<path d="M17 6V2C17 1.44772 16.5523 1 16 1C15.4477 1 15 1.44772 15 2V6C15 6.55228 15.4477 7 16 7C16.5523 7 17 6.55228 17 6Z" fill="#801ED7"/>
<path d="M1 8C1 7.44772 1.44772 7 2 7H6C6.55228 7 7 7.44772 7 8C7 8.55228 6.55228 9 6 9H2C1.44772 9 1 8.55228 1 8Z" fill="#801ED7"/>
<path d="M9 18C9 17.4477 8.55228 17 8 17C7.44772 17 7 17.4477 7 18V22C7 22.5523 7.44772 23 8 23C8.55228 23 9 22.5523 9 22V18Z" fill="#801ED7"/>
<path d="M12 7C9.23858 7 7 9.23858 7 12C7 14.7614 9.23858 17 12 17C14.7614 17 17 14.7614 17 12C17 9.23858 14.7614 7 12 7Z" fill="#801ED7"/>
</svg>
